public/svg/icon/qrl.svg

<svg xmlns="http://www.w3.org/2000/svg" xmlns:xlink="http://www.w3.org/1999/xlink" width="32" height="32" viewBox="0 0 32 32"><defs><linearGradient id="qrl-c" x1="50%" x2="50%" y1="0%" y2="100%"><stop offset="0%" stop-color="#FFF" stop-opacity=".5"/><stop offset="100%" stop-opacity=".5"/></linearGradient><circle id="qrl-b" cx="16" cy="15" r="15"/><filter id="qrl-a" width="111.7%" height="111.7%" x="-5.8%" y="-4.2%" filterUnits="objectBoundingBox"><feOffset dy=".5" in="SourceAlpha" result="shadowOffsetOuter1"/><feGaussianBlur in="shadowOffsetOuter1" result="shadowBlurOuter1" stdDeviation=".5"/><feComposite in="shadowBlurOuter1" in2="SourceAlpha" operator="out" result="shadowBlurOuter1"/><feColorMatrix in="shadowBlurOuter1" values="0 0 0 0 0 0 0 0 0 0 0 0 0 0 0 0 0 0 0.199473505 0"/></filter><path id="qrl-e" d="M25.6278511,20.2087325 C25.8328383,20.2100838 25.9986901,20.3811915 26,20.5926746 L26,22.5 L19.7214886,22.5 L19.697479,20.8403792 C19.6982537,20.7298924 19.7466503,20.6254928 19.8295318,20.5555189 C19.8544525,20.5235983 19.8826254,20.4945327 19.9135654,20.4688223 C22.6807673,18.5394682 23.7445763,14.8640695 22.4559014,11.6851985 C21.1672265,8.50632751 17.8838963,6.70666682 14.6092594,7.38429299 C11.3346226,8.06191916 8.97795317,11.0286746 8.97719088,14.474371 C8.97521291,16.8295622 10.09777,19.0346428 11.9783914,20.3697404 C12.0189802,20.3925431 12.0523275,20.4269471 12.0744298,20.4688223 C12.212184,20.532002 12.3013867,20.6724681 12.302521,20.827994 L12.2785114,22.4876148 L6,22.4876148 L6,20.5802894 C6,20.368244 6.16661672,20.1963472 6.37214886,20.1963472 C6.577681,20.1963472 6.74429772,20.368244 6.74429772,20.5802894 L6.74429772,21.7321157 L11.5462185,21.7321157 L11.5582233,21.0137724 L11.5462185,21.0137724 C8.78498295,19.0123791 7.5995484,15.3955228 8.61683122,12.0759759 C9.63411404,8.75642905 12.6194305,6.5 15.9939976,6.5 C19.3685647,6.5 22.3538812,8.75642905 23.371164,12.0759759 C24.3884468,15.3955228 23.2030122,19.0123791 20.4417767,21.0137724 L20.4537815,21.744501 L25.2557023,21.744501 L25.2557023,20.5926746 C25.2570121,20.3811915 25.422864,20.2100838 25.6278511,20.2087325 Z M20.6698679,15.0329448 C21.4981993,16.0856894 21.7503001,17.0269669 21.3901561,17.6462284 C21.1140456,18.1292523 20.5258103,18.3893422 19.6734694,18.3893422 C19.1380584,18.3763022 18.6060758,18.2973024 18.0888355,18.1540228 C17.6206483,19.7888732 16.8643457,20.8416177 16,20.8416177 C15.1356543,20.8416177 14.3793517,19.7888732 13.9231693,18.1540228 C13.405929,18.2973024 12.8739464,18.3763022 12.3385354,18.3893422 C11.4861945,18.3893422 10.8979592,18.1292523 10.6218487,17.6462284 C10.1776711,16.8783441 10.6818727,15.6769768 11.8343337,14.450839 C11.6603486,14.2703072 11.4960388,14.0801178 11.3421369,13.8811185 C10.5138055,12.8283739 10.2617047,11.8994817 10.6218487,11.2554497 C10.8979592,10.7724257 11.4861945,10.5123359 12.3385354,10.5123359 C12.8739464,10.5253758 13.405929,10.6043757 13.9231693,10.7476553 C14.3913565,9.11280491 15.1476591,8.06006037 16.0120048,8.06006037 C16.8763505,8.06006037 17.6326531,9.11280491 18.0888355,10.7600405 C18.6060758,10.6167609 19.1380584,10.5377611 19.6734694,10.5247211 C20.5258103,10.5247211 21.1140456,10.784811 21.3901561,11.2678349 C21.7503001,11.9118669 21.4981993,12.8407591 20.6698679,13.8935037 C20.515966,14.092503 20.3516562,14.2826924 20.1776711,14.4632243 C20.3516562,14.6437561 20.515966,14.8339455 20.6698679,15.0329448 Z M19.6854742,10.9829746 C19.1874165,10.9987369 18.6924138,11.0693199 18.2088836,11.1935236 C18.3376189,11.7813459 18.4298433,12.3770488 18.484994,12.9769967 C18.9593847,13.3277659 19.4124204,13.7082976 19.8415366,14.1164378 C20.0096038,13.9430446 20.1656663,13.7572662 20.3097239,13.5838729 C20.9939976,12.7045216 21.2460984,11.9490226 20.9939976,11.4907691 C20.7659064,11.0696713 20.1536615,10.9829746 19.6854742,10.9829746 Z M17.0444178,16.3210088 C17.392557,16.1104599 17.7286915,15.8875257 18.0408163,15.6645916 C18.0768307,15.2682642 18.0888355,14.8719369 18.0888355,14.450839 C18.0888355,14.0297412 18.0648259,13.6210286 18.0408163,13.2370865 C17.7286915,13.0141524 17.392557,12.8036034 17.0444178,12.5930545 C16.6962785,12.3948909 16.3481393,12.2091124 16,12.0357192 C15.642319,12.2018139 15.2936642,12.3878675 14.9555822,12.5930545 C14.5954382,12.8036034 14.2713085,13.0141524 13.9591837,13.2370865 C13.9231693,13.6210286 13.9111645,14.0297412 13.9111645,14.450839 C13.9111645,14.8719369 13.9351741,15.2806494 13.9591837,15.6645916 C14.2713085,15.8875257 14.607443,16.0980746 14.9555822,16.3086235 C15.3037215,16.5191724 15.6518607,16.7049509 16,16.8783441 C16.357681,16.7122494 16.7063358,16.5261958 17.0444178,16.3210088 Z M17.9927971,16.2838531 C17.7527011,16.4324758 17.5246098,16.5810986 17.2845138,16.7297214 C17.0444178,16.8783441 16.8043217,17.0145816 16.5642257,17.1384339 C16.9590285,17.3163529 17.3639346,17.4693854 17.7767107,17.5966875 C17.8607443,17.1879749 17.9327731,16.7544918 17.9927971,16.2838531 Z M15.4597839,17.1384339 L14.7394958,16.7297214 C14.4993998,16.5810986 14.2593037,16.4324758 14.0312125,16.2838531 C14.0738333,16.7260787 14.1460342,17.1647358 14.2472989,17.5966875 C14.6594234,17.4673706 15.0642169,17.3143807 15.4597839,17.1384339 Z M13.4909964,15.3054199 C13.4789916,15.0329448 13.4669868,14.7480846 13.4669868,14.450839 C13.4669868,14.1535935 13.4789916,13.8811185 13.4909964,13.5962582 C13.14199,13.8595022 12.809213,14.1449149 12.4945978,14.450839 C12.8112618,14.7543672 13.1438991,15.0396601 13.4909964,15.3054199 Z M14.0312125,12.6425955 C14.2593037,12.4815875 14.4753902,12.3453499 14.727491,12.1967272 C14.9795918,12.0481044 15.2196879,11.9118669 15.4597839,11.7880146 C15.0649811,11.6100956 14.660075,11.4570631 14.2472989,11.3297611 C14.1632653,11.7384737 14.0912365,12.1719567 14.0312125,12.6425955 Z M16.5522209,11.7880146 C16.7923169,11.9118669 17.032413,12.0481044 17.272509,12.1967272 C17.512605,12.3453499 17.7527011,12.4939727 17.9807923,12.6425955 C17.9381715,12.2003698 17.8659706,11.7617128 17.7647059,11.3297611 C17.3525814,11.4590779 16.9477879,11.6120679 16.5522209,11.7880146 Z M18.5330132,13.6086434 C18.545018,13.8935037 18.5570228,14.1659787 18.5570228,14.4632243 C18.5570228,14.7604698 18.545018,15.0453301 18.5330132,15.3178051 C18.8811525,15.0329448 19.2172869,14.7480846 19.517407,14.4632243 C19.207999,14.1561676 18.8791423,13.8706775 18.5330132,13.6086434 Z M16.0120048,8.5306991 C15.3997599,8.5306991 14.7755102,9.3976652 14.3673469,10.870269 C14.9286491,11.0475452 15.4780522,11.2626861 16.0120048,11.514301 C16.5459873,11.2631074 17.0953899,11.0483805 17.6566627,10.8715076 C17.2484994,9.3976652 16.6122449,8.5306991 16.0120048,8.5306991 Z M11.030012,11.4907691 C10.7659064,11.9490226 11.0180072,12.7169068 11.7142857,13.5702492 C11.8583433,13.7560276 12.0144058,13.9294209 12.182473,14.1151993 C12.6096908,13.7051855 13.0628721,13.3249452 13.5390156,12.9769967 C13.5941663,12.3770488 13.6863907,11.7813459 13.8151261,11.1935236 C13.3325932,11.0640623 12.8370153,10.9933973 12.3385354,10.9829746 C11.8703481,10.9829746 11.270108,11.0696713 11.030012,11.4907691 Z M12.3385354,17.9310887 C12.8379908,17.9217133 13.3342253,17.8463761 13.8151261,17.706916 C13.6864411,17.1195011 13.5942169,16.5242136 13.5390156,15.9246814 C13.0557282,15.5808867 12.5982495,15.1999937 12.1704682,14.7852402 C11.1380552,15.8875257 10.729892,16.8783441 11.030012,17.4232942 C11.2581032,17.8443921 11.8703481,17.9310887 12.3385354,17.9310887 Z M16.0120048,20.3833642 C16.6122449,20.3833642 17.2484994,19.5163981 17.6566627,18.0425557 C17.0953606,17.8652796 16.5459574,17.6501387 16.0120048,17.3985238 C15.4780522,17.6501387 14.9286491,17.8652796 14.3673469,18.0425557 C14.7755102,19.5163981 15.4117647,20.3833642 16.0120048,20.3833642 Z M20.9939976,17.4232942 C21.2460984,16.977426 20.9939976,16.2095417 20.3097239,15.3301904 C20.1656663,15.1567971 20.0096038,14.9710187 19.8415366,14.7976255 C19.4143565,15.2080648 18.9611743,15.5887195 18.484994,15.9370666 C18.4298433,16.5370145 18.3376189,17.1327174 18.2088836,17.7205398 C18.6914164,17.850001 19.1869943,17.920666 19.6854742,17.9310887 C20.1536615,17.9310887 20.7539016,17.8443921 20.9939976,17.4232942 Z M16.0120048,12.6425955 C16.981956,12.6425723 17.7701124,13.4501736 17.7767107,14.450839 C17.776688,15.447887 16.9944037,16.2567748 16.0279838,16.2590355 C15.0615639,16.2612963 14.2757321,15.4560769 14.2713267,14.4590393 C14.2669214,13.4620017 15.0456051,12.6494246 16.0120048,12.6425955 Z M16.0120048,15.8008291 C16.7258747,15.7954333 17.3032934,15.1997164 17.3085234,14.4632243 C17.3085234,13.7244855 16.7280523,13.1256194 16.0120048,13.1256194 C15.2959573,13.1256194 14.7154862,13.7244855 14.7154862,14.4632243 C14.7154862,15.201963 15.2959573,15.8008291 16.0120048,15.8008291 Z"/><filter id="qrl-d" width="117.5%" height="121.9%" x="-8.8%" y="-7.8%" filterUnits="objectBoundingBox"><feOffset dy=".5" in="SourceAlpha" result="shadowOffsetOuter1"/><feGaussianBlur in="shadowOffsetOuter1" result="shadowBlurOuter1" stdDeviation=".5"/><feColorMatrix in="shadowBlurOuter1" values="0 0 0 0 0 0 0 0 0 0 0 0 0 0 0 0 0 0 0.204257246 0"/></filter></defs><g fill="none" fill-rule="evenodd"><use fill="#000" filter="url(#qrl-a)" xlink:href="#qrl-b"/><use fill="#252525" xlink:href="#qrl-b"/><use fill="url(#qrl-c)" style="mix-blend-mode:soft-light" xlink:href="#qrl-b"/><circle cx="16" cy="15" r="14.5" stroke="#000" stroke-opacity=".097"/><g fill-rule="nonzero"><use fill="#000" filter="url(#qrl-d)" xlink:href="#qrl-e"/><use fill="#FFF" fill-rule="evenodd" xlink:href="#qrl-e"/></g></g></svg>

<svg xmlns="http://www.w3.org/2000/svg" xmlns:xlink="http://www.w3.org/1999/xlink" width="32" height="32" viewBox="0 0 32 32"><defs><filter id="a" width="111.7%" height="111.7%" x="-5.8%" y="-4.2%" filterUnits="objectBoundingBox"><feOffset dy=".5" in="SourceAlpha" result="shadowOffsetOuter1"/><feGaussianBlur in="shadowOffsetOuter1" result="shadowBlurOuter1" stdDeviation=".5"/><feComposite in="shadowBlurOuter1" in2="SourceAlpha" operator="out" result="shadowBlurOuter1"/><feColorMatrix in="shadowBlurOuter1" values="0 0 0 0 0 0 0 0 0 0 0 0 0 0 0 0 0 0 0.199473505 0"/></filter><filter id="d" width="117.5%" height="121.9%" x="-8.8%" y="-7.8%" filterUnits="objectBoundingBox"><feOffset dy=".5" in="SourceAlpha" result="shadowOffsetOuter1"/><feGaussianBlur in="shadowOffsetOuter1" result="shadowBlurOuter1" stdDeviation=".5"/><feColorMatrix in="shadowBlurOuter1" values="0 0 0 0 0 0 0 0 0 0 0 0 0 0 0 0 0 0 0.204257246 0"/></filter><linearGradient id="c" x1="50%" x2="50%" y1="0%" y2="100%"><stop offset="0%" stop-color="#FFF" stop-opacity=".5"/><stop offset="100%" stop-opacity=".5"/></linearGradient><circle id="b" cx="16" cy="15" r="15"/><path id="e" d="M25.628 20.209a.38.38 0 01.372.384V22.5h-6.279l-.024-1.66a.375.375 0 01.133-.284.564.564 0 01.084-.087c2.767-1.93 3.83-5.605 2.542-8.784-1.289-3.179-4.572-4.978-7.847-4.3-3.274.677-5.631 3.644-5.632 7.09-.002 2.355 1.12 4.56 3.001 5.895a.241.241 0 01.096.099.397.397 0 01.229.359l-.024 1.66H6V20.58c0-.212.167-.384.372-.384.206 0 .372.172.372.384v1.152h4.802l.012-.718h-.012c-2.761-2.002-3.946-5.618-2.93-8.938C9.635 8.756 12.62 6.5 15.995 6.5s6.36 2.256 7.377 5.576c1.017 3.32-.168 6.936-2.93 8.938l.013.73h4.802v-1.151a.38.38 0 01.372-.384zm-4.958-5.176c.828 1.053 1.08 1.994.72 2.613-.276.483-.864.743-1.717.743a6.53 6.53 0 01-1.584-.235c-.468 1.635-1.225 2.688-2.089 2.688-.864 0-1.62-1.053-2.077-2.688a6.53 6.53 0 01-1.584.235c-.853 0-1.441-.26-1.717-.743-.444-.768.06-1.969 1.212-3.195a6.934 6.934 0 01-.492-.57c-.828-1.053-1.08-1.982-.72-2.626.276-.483.864-.743 1.717-.743a6.53 6.53 0 011.584.236c.468-1.635 1.225-2.688 2.089-2.688.864 0 1.62 1.053 2.077 2.7a6.53 6.53 0 011.584-.235c.853 0 1.441.26 1.717.743.36.644.108 1.573-.72 2.626a7.03 7.03 0 01-.492.57c.174.18.338.37.492.569zm-.985-4.05a6.798 6.798 0 00-1.476.21c.129.588.22 1.184.276 1.784.474.35.927.731 1.357 1.14.168-.174.324-.36.468-.533.684-.88.936-1.635.684-2.093-.228-.421-.84-.508-1.309-.508zm-2.64 5.338c.348-.21.684-.433.996-.656.036-.397.048-.793.048-1.214 0-.421-.024-.83-.048-1.214a15.667 15.667 0 00-.997-.644A21.38 21.38 0 0016 12.036c-.358.166-.706.352-1.044.557-.36.21-.685.421-.997.644-.036.384-.048.793-.048 1.214 0 .42.024.83.048 1.214A15.667 15.667 0 0016 16.878c.358-.166.706-.352 1.044-.557zm.948-.037c-.24.148-.468.297-.708.446-.24.148-.48.285-.72.408.394.178.799.331 1.212.459.084-.409.156-.843.216-1.313zm-2.533.854l-.72-.408c-.24-.149-.48-.298-.709-.446.043.442.115.88.216 1.313.412-.13.817-.283 1.213-.459zm-1.969-1.833a19.183 19.183 0 01-.024-.854c0-.297.012-.57.024-.855-.349.264-.682.549-.996.855.316.303.649.589.996.854zm.54-2.662a9.75 9.75 0 01.696-.446c.253-.149.493-.285.733-.409-.395-.178-.8-.33-1.213-.458-.084.408-.156.842-.216 1.313zm2.521-.855c.24.124.48.26.72.409.24.148.48.297.709.446a9.923 9.923 0 00-.216-1.313c-.412.13-.817.282-1.213.458zm1.981 1.82c.012.286.024.558.024.855 0 .297-.012.582-.024.855.348-.285.684-.57.984-.855a9.765 9.765 0 00-.984-.854zm-2.521-5.077c-.612 0-1.236.867-1.645 2.34.562.177 1.111.392 1.645.643a13.145 13.145 0 011.645-.642c-.409-1.474-1.045-2.341-1.645-2.341zm-4.982 2.96c-.264.458-.012 1.226.684 2.08.144.185.3.358.468.544.428-.41.88-.79 1.357-1.138.055-.6.147-1.196.276-1.783-.482-.13-.978-.2-1.476-.211-.469 0-1.069.087-1.309.508zm1.309 6.44c.499-.01.995-.085 1.476-.224a14.572 14.572 0 01-.276-1.782c-.483-.344-.94-.725-1.369-1.14-1.032 1.103-1.44 2.093-1.14 2.638.228.421.84.508 1.309.508zm3.673 2.452c.6 0 1.236-.867 1.645-2.34a13.146 13.146 0 01-1.645-.644 13.32 13.32 0 01-1.645.644c.409 1.473 1.045 2.34 1.645 2.34zm4.982-2.96c.252-.446 0-1.213-.684-2.093a9.288 9.288 0 00-.468-.532c-.428.41-.88.79-1.357 1.14a14.518 14.518 0 01-.276 1.783c.482.129.978.2 1.476.21.469 0 1.069-.087 1.309-.508zm-4.982-4.78c.97 0 1.758.807 1.765 1.808 0 .997-.783 1.806-1.749 1.808-.966.002-1.752-.803-1.757-1.8-.004-.997.775-1.81 1.741-1.816zm0 3.158c.714-.006 1.291-.601 1.297-1.338 0-.739-.58-1.337-1.297-1.337-.716 0-1.297.598-1.297 1.337s.581 1.338 1.297 1.338z"/></defs><g fill="none" fill-rule="evenodd"><use fill="#000" filter="url(#a)" xlink:href="#b"/><use fill="#252525" xlink:href="#b"/><use fill="url(#c)" style="mix-blend-mode:soft-light" xlink:href="#b"/><circle cx="16" cy="15" r="14.5" stroke="#000" stroke-opacity=".097"/><g fill-rule="nonzero"><use fill="#000" filter="url(#d)" xlink:href="#e"/><use fill="#FFF" fill-rule="evenodd" xlink:href="#e"/></g></g></svg>
